X: 36
T:Cup o' Tea, the
M:4/4
L:1/8
Q:1/2=60
S:Glenna's old fiddle book (I think a Mel Bay but covers torn off)
R:reel
Z:James T. Peeples
K:D
{Bd}BAGF GE~E2|GEBE GE~E2|1 BAGF GE~E2|FDAG FDD2:|2 BAGF GABc|d2AG FDD2|
|
|:d2eg fdec|d2eg fB~B2|d2eg fdec|dBAG FDD2|
|d2eg fdec|dfaf {a}g2fg|af{a}ge fdec|1 dBAG FDD2:|2 dBAG FDDE||
|:FA (3AAA FAdA|FAdA FE~E2|FA (3AAA {d}BABc|dBAG FDDF|
|FAdA FAdA|FAde fe{a}e2|f2{af}e cdAF|1 GBAG FDDE:|2 GBAG FD{A}D2||
<end>
<start>
